X:1410
T:The Bonniest Lass in All The World
P:Miss Coxe's Strathspey
C:Mrs McIntyre (here from Gow)
R:Strathspey (8x40) ABABB
B:RSCDS 14-10
Z:Anselm Lingnau <anselm@strathspey.org>
M:4/4
L:1/8
K:Eb
B/c/4d/4|"Eb"e>E "Ab"C>E "Eb/G"B,>E G,>E|B,>D A/G/F/E/ "Bb"D<F FB/c/4d/4|\
  "Eb"e>E "Ab"C>E "Eb/G"B,>E G,>E|
                                  "Bb"DE/F/ B,>A "E"G<E E B/c/4d/4|\
  "Eb"e>E "Ab"C>E "Eb/G"B,>E G,>E|B,>D A/G/F/E/ "Bb"D<F FG/A/|
  "Eb7"B>G Ee "Ab"c>A Fc|"Eb"B>G "Bb"F>A "Eb"G<E E||\
B/c/4d/4|"Eb"e>B e>g e>c B<G|
                             "Fm"A>F A/G/F/E/ "Bb"D<F F>A|\
  "Eb"G/A/B E>e "Bb"d/e/f B>a|"Eb"g<b "Bb"f>a "Eb"g<e e>a|
  "Eb"g>e "Bb"d<f "C"e>c "Gm"B>G|"Fm"A>F "Eb"B>E "Bb"D<F FG/A/|\
  "Eb"G>E B,>_D "Ab"C2 A,>c|"Bb7"B>G F>A "Eb"G<E E|]
